X:967
T:Scatter the Mud
N:"2nd Setting"
N:"Collected by McFadden"
B:O'Neill's 967
Z:Transcribed by Dan G. Petersen, dangp@post6.tele.dk
M:6/8
L:1/8
K:Am
d | eAA B3/(c/B/A/) | eAA ABd | eAA B3/(c/B/A/) | dBG GBd |
eAA B3/(c/B/A/) | eAA AGE | GAB Bge | dBA A2 :|
d | eaa egg | dBA ABd | eaa egg | dBG GBd |
ea^f ({a}g2)e | dBA AGE | GAB Bge | dBA A2 :|


